antibot/app/images/dist/elama-logo.svg

<svg width="130" height="42" viewBox="0 0 130 42" fill="none" xmlns="http://www.w3.org/2000/svg">
<g clip-path="url(#clip0_230_23091)">
<path d="M22 42C34.1503 42 44 32.5979 44 21.0001C44 9.40206 34.1503 0 22 0C9.84974 0 0 9.40206 0 21.0001C0 32.5979 9.84974 42 22 42Z" fill="#3A64F8"/>
<path fill-rule="evenodd" clip-rule="evenodd" d="M19.6804 14.0305C21.0923 14.0653 21.2088 12.8562 21.3076 11.8304C21.3317 11.5804 21.3548 11.3414 21.3953 11.1339C21.4286 10.963 21.4808 10.7521 21.539 10.5165C21.8416 9.29296 22.3083 7.40711 21.1473 7.03859C19.7631 6.59923 18.5028 10.0352 18.3787 11.054L18.3598 11.2072C18.2278 12.2529 18.009 13.9893 19.6804 14.0305ZM15.6515 16.5287C17.0078 16.0202 16.6617 14.4304 16.3406 12.9554C16.3172 12.8474 16.2939 12.7398 16.2712 12.6334C16.1771 12.1898 16.1483 11.5917 16.1181 10.9643C16.0422 9.38732 15.9572 7.62403 14.8044 7.65921C13.1928 7.70834 12.6973 11.5444 13.1722 13.9118C13.1722 13.9118 13.5377 17.319 15.6515 16.5287ZM29.0559 16.9708C29.6627 17.0228 30.3504 17.0818 30.6721 17.6115C31.3122 18.665 31.0023 20.523 29.8547 21.8456C28.7071 23.1682 25.9405 24.0388 24.9488 24.2386C24.1368 24.4022 24.2295 24.8504 24.3655 25.509C24.3957 25.6547 24.4279 25.8109 24.453 25.9766C24.591 26.8901 24.755 29.9916 24.7629 32.9084C24.7706 35.8252 23.8836 40.9574 23.8836 40.9574C23.7124 41.7965 24.1366 41.8907 24.1366 41.8907C18.1071 42.4478 14.3198 40.6939 14.3198 40.6939C14.3198 40.6939 14.5651 40.7352 14.709 40.6487C15.0646 40.2836 15.2028 39.6013 15.8223 36.5393L15.9431 35.9441C17.5972 27.7883 17.0611 23.4549 16.8705 22.4206C16.8567 22.3457 16.8356 22.2452 16.8103 22.1246C16.65 21.3605 16.3208 19.791 16.6019 18.8248C16.9273 17.7063 17.5137 15.8229 20.77 15.1905C24.0261 14.558 27.4694 14.5698 28.523 14.9294C29.5767 15.289 29.6867 15.9654 29.4734 15.9482C29.4315 15.945 29.3589 15.9272 29.2674 15.905C28.817 15.7955 27.9067 15.5742 27.9239 16.3878C27.9342 16.8745 28.4556 16.9192 29.0559 16.9708ZM19.4462 18.67C19.4462 19.2722 19.9522 19.7615 20.575 19.7615C20.8743 19.7613 21.1613 19.6462 21.373 19.4416C21.5846 19.2369 21.7036 18.9594 21.7038 18.67C21.7036 18.3806 21.5846 18.1031 21.373 17.8984C21.1613 17.6937 20.8743 17.5786 20.575 17.5784C20.2756 17.5786 19.9886 17.6937 19.777 17.8984C19.5653 18.1031 19.4464 18.3806 19.4462 18.67Z" fill="white"/>
<path d="M71.1614 12.695V25.0823C71.1614 28.1373 72.7105 30 74.9955 30C76.2734 30 77.2803 29.1058 76.893 28.0254C76.4477 26.7587 74.492 27.5971 74.492 24.2441V12.695C74.492 11.6519 73.8917 11 72.8267 11C71.7618 11 71.1614 11.6519 71.1614 12.695ZM56 23.4058C56 27.0941 58.8076 30 63.4354 30C66.3787 30 68.896 29.0313 68.896 27.5411C68.896 26.7215 68.3538 26.2744 67.6373 26.2744C66.6885 26.2744 65.4493 27.2058 63.3581 27.2058C61.4797 27.2058 59.9888 26.4235 59.4466 24.8402H64.2486C66.9982 24.8402 69.2252 23.5921 69.2252 21.1333C69.2252 18.8608 67.3082 16.3646 63.2612 16.3646C59.0013 16.3646 56 19.1588 56 23.4058ZM59.2918 22.5117C59.6595 20.2019 61.441 19.1588 63.4548 19.1588C64.9652 19.1588 65.9528 19.8667 65.9528 20.8166C65.9528 21.9157 65.1394 22.5117 63.2805 22.5117H59.2918ZM77.9773 25.6039C77.9773 28.0813 79.7782 30 82.7215 30C84.7739 30 86.6909 29.0686 87.8139 27.3175C88.1045 28.547 88.8791 30 90.6797 30C91.706 30 92.4226 29.4412 92.4226 28.6775C92.4226 27.2989 90.5442 27.6157 90.5442 26.1441V22.0646C90.5442 18.5627 88.4143 16.3646 84.1737 16.3646C80.94 16.3646 78.5583 17.2402 78.5583 18.6372C78.5583 19.4568 79.1392 19.9225 79.875 19.9225C80.9787 19.9225 82.218 19.1588 84.2511 19.1588C85.8777 19.1588 87.0007 19.8108 87.1749 21.5803H82.7602C79.7395 21.5803 77.9773 23.4804 77.9773 25.6039ZM81.2691 25.7342C81.2498 24.8402 81.9856 23.9087 83.4572 23.9087H87.1749C86.9038 26.1441 84.8708 27.4666 83.2248 27.4666C82.063 27.4666 81.2886 26.796 81.2691 25.7342ZM94.0684 28.3607C94.0684 29.2921 94.6687 30 95.7337 30C96.7986 30 97.399 29.2921 97.399 28.3607V22.0646C97.399 19.8667 98.5801 19.1215 99.7613 19.1215C100.865 19.1215 101.562 19.8667 101.562 21.3755V28.3607C101.562 29.2921 102.143 30 103.208 30C104.273 30 104.873 29.2921 104.873 28.3607L104.912 22.0646C104.931 19.8667 106.074 19.1215 107.255 19.1215C108.359 19.1215 109.056 19.8667 109.056 21.3381L109.075 28.3607C109.075 29.2921 109.656 30 110.721 30C111.786 30 112.386 29.2921 112.386 28.3607V20.7793C112.386 17.9667 110.973 16.3832 108.746 16.3832C107.139 16.3832 105.493 17.2774 104.602 18.8049C104.06 17.2402 102.782 16.3832 101.155 16.3832C99.7031 16.3832 98.309 17.203 97.399 18.5069V17.8735C97.399 17.0725 96.7986 16.3646 95.7337 16.3646C94.6687 16.3646 94.0684 17.0725 94.0684 18.0039V28.3607ZM114.555 25.6039C114.555 28.0813 116.356 30 119.299 30C121.351 30 123.268 29.0686 124.392 27.3175C124.682 28.547 125.457 30 127.257 30C128.283 30 129 29.4412 129 28.6775C129 27.2989 127.122 27.6157 127.122 26.1441V22.0646C127.122 18.5627 124.992 16.3646 120.751 16.3646C117.517 16.3646 115.136 17.2402 115.136 18.6372C115.136 19.4568 115.717 19.9225 116.452 19.9225C117.556 19.9225 118.795 19.1588 120.829 19.1588C122.455 19.1588 123.578 19.8108 123.753 21.5803H119.338C116.317 21.5803 114.555 23.4804 114.555 25.6039ZM117.847 25.7342C117.827 24.8402 118.563 23.9087 120.035 23.9087H123.753C123.481 26.1441 121.448 27.4666 119.802 27.4666C118.641 27.4666 117.866 26.796 117.847 25.7342Z" fill="#292E3D"/>
</g>
<defs>
<clipPath id="clip0_230_23091">
<rect width="130" height="42" fill="white"/>
</clipPath>
</defs>
</svg>

<svg width="130" height="42" fill="none" xmlns="http://www.w3.org/2000/svg"><g clip-path="url(#a)"><path d="M22 42c12.15 0 22-9.402 22-21S34.15 0 22 0 0 9.402 0 21s9.85 21 22 21Z" fill="#3A64F8"/><path fill-rule="evenodd" clip-rule="evenodd" d="M19.68 14.03c1.412.035 1.529-1.174 1.628-2.2.024-.25.047-.489.087-.696.034-.171.086-.382.144-.617.303-1.224.77-3.11-.392-3.478-1.384-.44-2.644 2.996-2.768 4.015l-.02.153c-.131 1.046-.35 2.782 1.321 2.823Zm-4.028 2.499c1.356-.509 1.01-2.099.689-3.574a104.17 104.17 0 0 1-.07-.322c-.094-.443-.123-1.041-.153-1.669-.076-1.577-.16-3.34-1.314-3.305-1.611.05-2.107 3.885-1.632 6.253 0 0 .366 3.407 2.48 2.617Zm13.404.442c.607.052 1.294.11 1.616.64.64 1.054.33 2.912-.817 4.235-1.148 1.322-3.915 2.193-4.906 2.393-.812.163-.72.611-.584 1.27.03.146.063.302.088.468.138.913.302 4.015.31 6.931.008 2.917-.88 8.05-.88 8.05-.17.839.254.933.254.933-6.03.557-9.817-1.197-9.817-1.197s.245.041.389-.045c.356-.365.494-1.048 1.113-4.11l.121-.595c1.654-8.156 1.118-12.49.928-13.523a16.298 16.298 0 0 0-.06-.296c-.161-.765-.49-2.334-.21-3.3.326-1.119.913-3.002 4.169-3.634 3.256-.633 6.7-.621 7.753-.262 1.054.36 1.164 1.036.95 1.02-.041-.004-.114-.022-.206-.044-.45-.11-1.36-.33-1.343.483.01.486.532.531 1.132.583Zm-9.61 1.699c0 .602.506 1.091 1.129 1.091.3 0 .586-.115.798-.32a1.07 1.07 0 0 0 0-1.543 1.15 1.15 0 0 0-.798-.32c-.3 0-.586.116-.798.32-.212.205-.33.483-.33.772Z" fill="#fff"/><path d="M71.161 12.695v12.387c0 3.055 1.55 4.918 3.835 4.918 1.277 0 2.284-.894 1.897-1.975-.445-1.266-2.401-.428-2.401-3.78v-11.55c0-1.043-.6-1.695-1.665-1.695s-1.666.652-1.666 1.695ZM56 23.405C56 27.096 58.808 30 63.435 30c2.944 0 5.461-.969 5.461-2.459 0-.82-.542-1.267-1.259-1.267-.948 0-2.188.932-4.279.932-1.878 0-3.37-.782-3.911-2.366h4.802c2.75 0 4.976-1.248 4.976-3.707 0-2.272-1.917-4.768-5.964-4.768-4.26 0-7.261 2.794-7.261 7.04Zm3.292-.893c.367-2.31 2.149-3.353 4.163-3.353 1.51 0 2.498.708 2.498 1.658 0 1.099-.814 1.695-2.672 1.695h-3.99Zm18.685 3.092c0 2.477 1.801 4.396 4.745 4.396 2.052 0 3.969-.931 5.092-2.683.29 1.23 1.065 2.683 2.866 2.683 1.026 0 1.743-.559 1.743-1.323 0-1.378-1.879-1.061-1.879-2.533v-4.08c0-3.501-2.13-5.7-6.37-5.7-3.234 0-5.616.876-5.616 2.273 0 .82.581 1.285 1.317 1.285 1.104 0 2.343-.763 4.376-.763 1.627 0 2.75.652 2.924 2.421H82.76c-3.02 0-4.783 1.9-4.783 4.024Zm3.292.13c-.02-.894.717-1.825 2.188-1.825h3.718c-.271 2.235-2.304 3.558-3.95 3.558-1.162 0-1.936-.671-1.956-1.733Zm12.8 2.627c0 .931.6 1.639 1.665 1.639s1.665-.708 1.665-1.64v-6.295c0-2.198 1.181-2.944 2.362-2.944 1.104 0 1.801.746 1.801 2.255v6.985c0 .931.581 1.639 1.646 1.639s1.665-.708 1.665-1.64l.039-6.295c.019-2.198 1.162-2.944 2.343-2.944 1.104 0 1.801.746 1.801 2.217l.019 7.023c0 .931.581 1.639 1.646 1.639s1.665-.708 1.665-1.64v-7.58c0-2.813-1.413-4.397-3.64-4.397-1.607 0-3.253.894-4.144 2.422-.542-1.565-1.82-2.422-3.447-2.422-1.452 0-2.846.82-3.756 2.124v-.634c0-.8-.6-1.508-1.665-1.508s-1.666.708-1.666 1.639V28.36Zm20.486-2.757c0 2.477 1.801 4.396 4.744 4.396 2.052 0 3.969-.931 5.093-2.683.29 1.23 1.065 2.683 2.865 2.683 1.026 0 1.743-.559 1.743-1.323 0-1.378-1.878-1.061-1.878-2.533v-4.08c0-3.501-2.13-5.7-6.371-5.7-3.234 0-5.615.876-5.615 2.273 0 .82.581 1.285 1.316 1.285 1.104 0 2.343-.763 4.377-.763 1.626 0 2.749.652 2.924 2.421h-4.415c-3.021 0-4.783 1.9-4.783 4.024Zm3.292.13c-.02-.894.716-1.825 2.188-1.825h3.718c-.272 2.235-2.305 3.558-3.951 3.558-1.161 0-1.936-.671-1.955-1.733Z" fill="#292E3D"/></g><defs><clipPath id="a"><path fill="#fff" d="M0 0h130v42H0z"/></clipPath></defs></svg>
